X: 34
M:4/4
L:1/8
K:F
defg a"tr"fg"tr"e|f"tr"dcA FGAc|defg a"tr"fg"tr"e|f"tr"de"tr"^c Ad d2|
defg a2 g"tr"e|(3fga g"tr"e f2 df|a"tr"fg"tr"e abag|
f"tr"de"tr"^c Ad d2||

